outputs/icons/device/network_signal_sharp.svg

<svg xmlns="http://www.w3.org/2000/svg" width="1200" height="1200" fill="none"><g clip-path="url(#a)"><path fill="#000" d="M926.48 1150 647.87 446.129c-17.185-43.463-78.695-43.463-95.905 0L273.354 1150zm-103.985-68.75H487.726L767.6 941.3zm-222.58-567.555 130.24 332.11-198.28-158.62zm-94.315 240.5L691.185 902.65l-303.276 151.635zm483.185 73.54L915.91 754.9a446.9 446.9 0 0 0 96.87-144.975 446.85 446.85 0 0 0 0-342.029 446.9 446.9 0 0 0-96.87-144.978L988.785 50a550 550 0 0 1 161.05 388.867c0 145.848-57.93 285.728-161.05 388.868M283.925 754.9l-72.876 72.835a550 550 0 0 1 0-777.735l72.919 72.918A446.87 446.87 0 0 0 153.077 438.91a446.9 446.9 0 0 0 34.018 171.015c22.458 54.215 55.333 103.48 96.83 144.975m486.15-486.146 72.915-72.918a343.7 343.7 0 0 1 74.52 111.522 343.7 343.7 0 0 1 26.17 131.552c0 45.143-8.89 89.845-26.17 131.55a343.7 343.7 0 0 1-74.52 111.525l-72.915-72.92A240.7 240.7 0 0 0 822.24 531a240.6 240.6 0 0 0 0-184.179 240.7 240.7 0 0 0-52.165-78.067M256.167 438.867a342.76 342.76 0 0 1 100.675-243.031l72.918 72.918A240.63 240.63 0 0 0 377.594 531a240.6 240.6 0 0 0 52.166 78.065l-72.918 72.92a342.76 342.76 0 0 1-100.675-243.118"/></g><defs><clipPath id="a"><path fill="#fff" d="M0 0h1200v1200H0z"/></clipPath></defs></svg>

<svg width="1200" height="1200" viewBox="0 0 1200 1200" fill="none" xmlns="http://www.w3.org/2000/svg"><g clip-path="url(#clip0_833_1870)"><path d="M926.48 1150L647.87 446.129C630.685 402.666 569.175 402.666 551.965 446.129L273.354 1150H926.48ZM822.495 1081.25H487.726L767.6 941.3L822.495 1081.25ZM599.915 513.695L730.155 845.805L531.875 687.185L599.915 513.695ZM505.6 754.195L691.185 902.65L387.909 1054.285L505.6 754.195ZM988.785 827.735L915.91 754.9C957.405 713.405 990.325 664.14 1012.78 609.925C1035.24 555.705 1046.8 497.596 1046.8 438.91C1046.8 380.225 1035.24 322.114 1012.78 267.896C990.325 213.678 957.405 164.415 915.91 122.918L988.785 50C1091.905 153.142 1149.835 293.018 1149.835 438.867C1149.835 584.715 1091.905 724.595 988.785 827.735ZM283.925 754.9L211.049 827.735C107.93 724.595 50 584.715 50 438.867C50 293.018 107.93 153.142 211.049 50L283.968 122.918C242.47 164.415 209.553 213.678 187.095 267.896C164.637 322.114 153.077 380.225 153.077 438.91C153.077 497.596 164.637 555.705 187.095 609.925C209.553 664.14 242.428 713.405 283.925 754.9ZM770.075 268.754L842.99 195.836C874.915 227.757 900.235 265.652 917.51 307.358C934.79 349.065 943.68 393.767 943.68 438.91C943.68 484.053 934.79 528.755 917.51 570.46C900.235 612.17 874.915 650.065 842.99 681.985L770.075 609.065C792.42 586.72 810.145 560.195 822.24 531C834.335 501.805 840.56 470.512 840.56 438.91C840.56 407.309 834.335 376.017 822.24 346.821C810.145 317.625 792.42 291.099 770.075 268.754ZM256.167 438.867C256.117 393.724 264.985 349.016 282.262 307.309C299.539 265.603 324.885 227.719 356.842 195.836L429.76 268.754C407.414 291.099 389.688 317.625 377.594 346.821C365.5 376.017 359.274 407.309 359.274 438.91C359.274 470.512 365.5 501.805 377.594 531C389.688 560.195 407.414 586.72 429.76 609.065L356.842 681.985C324.874 650.09 299.522 612.195 282.245 570.47C264.969 528.75 256.106 484.025 256.167 438.867Z" fill="black"/></g><defs><clipPath id="clip0_833_1870"><path width="24" fill="white" d="M0 0H1200V1200H0V0z"/></clipPath></defs></svg>
